_includes/icons/color-letterbox.svg

<svg fill="#666" height="50" viewBox="0 0 48 48" width="50" xmlns="http://www.w3.org/2000/svg"><path d="m45 34v-16c0-4.417969-3.582031-8-8-8h-21c-4.417969 0-8 3.582031-8 8v16z" fill="#2196f3"/><g fill="#ff3d00"><path d="m28 4h6v4h-6z"/><path d="m28 6h2v11h-2z"/><path d="m31 18c0 1.105469-.894531 2-2 2s-2-.894531-2-2 .894531-2 2-2 2 .894531 2 2z"/></g><path d="m30 18c0 .550781-.449219 1-1 1s-1-.449219-1-1 .449219-1 1-1 1 .449219 1 1z" fill="#dd2c00"/><path d="m25 34h5v10h-5z" fill="#ffcc80"/><path d="m25 34h5v2h-5z" fill="#ffa726"/><path d="m16 10c-4.410156 0-8 3.589844-8 8v16h16v-16c0-4.410156-3.589844-8-8-8z" fill="#1976d2"/><path d="m16 12c-3.308594 0-6 2.691406-6 6v14h12v-14c0-3.308594-2.691406-6-6-6z" fill="#64b5f6"/><path d="m20 20c0 .550781-.449219 1-1 1h-6c-.550781 0-1-.449219-1-1s.449219-1 1-1h6c.550781 0 1 .449219 1 1z" fill="#0d47a1"/></svg>

<svg xmlns="http://www.w3.org/2000/svg" viewBox="0 0 48 48" width="50" height="50" fill="#666"><path d="M 45 34 L 45 18 C 45 13.582031 41.417969 10 37 10 L 16 10 C 11.582031 10 8 13.582031 8 18 L 8 34 Z" fill="#2196f3"/><path d="M 28 4 L 34 4 L 34 8 L 28 8 Z" fill="#ff3d00"/><path d="M 28 6 L 30 6 L 30 17 L 28 17 Z" fill="#ff3d00"/><path d="M 31 18 C 31 19.105469 30.105469 20 29 20 C 27.894531 20 27 19.105469 27 18 C 27 16.894531 27.894531 16 29 16 C 30.105469 16 31 16.894531 31 18 Z" fill="#ff3d00"/><path d="M 30 18 C 30 18.550781 29.550781 19 29 19 C 28.449219 19 28 18.550781 28 18 C 28 17.449219 28.449219 17 29 17 C 29.550781 17 30 17.449219 30 18 Z" fill="#dd2c00"/><path d="M 25 34 L 30 34 L 30 44 L 25 44 Z" fill="#ffcc80"/><path d="M 25 34 L 30 34 L 30 36 L 25 36 Z" fill="#ffa726"/><path d="M 16 10 C 11.589844 10 8 13.589844 8 18 L 8 34 L 24 34 L 24 18 C 24 13.589844 20.410156 10 16 10 Z" fill="#1976d2"/><path d="M 16 12 C 12.691406 12 10 14.691406 10 18 L 10 32 L 22 32 L 22 18 C 22 14.691406 19.308594 12 16 12 Z" fill="#64b5f6"/><path d="M 20 20 C 20 20.550781 19.550781 21 19 21 L 13 21 C 12.449219 21 12 20.550781 12 20 C 12 19.449219 12.449219 19 13 19 L 19 19 C 19.550781 19 20 19.449219 20 20 Z" fill="#0d47a1"/></svg>
